X:87
T: HIER TRETEN WIR HER MIT UNSERM STERN
N: K1703
O: Europa, Mitteleuropa, Deutschland, Schleswig, Westkueste
R: Kinder -, Ansinge - Lied, Bettel - Reim
M: 3/4
L: 1/8
K: F
C2 | F4E2 | F4F2 | F2A2G2 | F4
GA | B3GcB | A3GF2 | G3FE2 | F4
GA | B3GcB | A3GF2 | G3FE2 | F4

